contributed-vectors/mir_pay.svg

<svg width="192" height="192" viewBox="0 0 192 192" fill="none" xmlns="http://www.w3.org/2000/svg">
<path fill-rule="evenodd" clip-rule="evenodd" d="M96 184C144.601 184 184 144.601 184 96C184 47.399 144.601 8 96 8C47.399 8 8 47.399 8 96C8 144.601 47.399 184 96 184Z" fill="#98DC9A"/>
<path fill-rule="evenodd" clip-rule="evenodd" d="M49.0896 68.0902C49.0403 68.1397 49 75.5638 49 84.5882V100.996H54.2371H59.4743V91.2505V81.5049L59.8267 81.5478C60.1712 81.5896 60.2455 81.8083 63.1426 91.2953L66.106 101L69.856 100.964L73.606 100.928L76.5697 91.2256C79.3762 82.0372 79.5499 81.5229 79.8438 81.5229H80.1543V91.2594V100.996H85.3914H90.6286V84.498V68H85.349C82.1367 68 79.7573 68.0573 79.2726 68.1466C77.5203 68.4688 75.8252 69.6832 75.0332 71.1834C74.8385 71.5522 73.7326 75.1705 72.5759 79.224C71.419 83.2775 70.4104 86.7919 70.3345 87.0335C70.2236 87.3862 70.1249 87.473 69.8346 87.473H69.4727L67.2615 79.7356C66.0454 75.4799 64.9233 71.7223 64.768 71.3852C64.3549 70.4886 63.2372 69.3284 62.304 68.8275C60.8962 68.0718 60.2574 68.005 54.4274 68.0023C51.5408 68.0011 49.1387 68.0406 49.0896 68.0902ZM95.1496 68.0902C95.1003 68.1397 95.06 75.5638 95.06 84.5882V100.996H100.297H105.534V84.498V68H100.387C97.5554 68 95.1987 68.0406 95.1496 68.0902ZM109.22 68.9128C109.585 72.0229 110.903 74.8285 113.088 77.145C115.154 79.3357 117.605 80.7247 120.641 81.4256C121.795 81.692 122.327 81.707 132.425 81.7577L143 81.811V79.6696C143 77.2285 142.804 76.2537 141.975 74.5828C140.677 71.9633 138.525 69.968 135.835 68.8898C133.94 68.1302 134.134 68.1401 121.13 68.1375L109.129 68.1352L109.22 68.9128ZM109.787 83.7768C109.737 83.8263 109.697 87.7209 109.697 92.4315V100.996H115.001H120.306V96.1243V91.2527L122.486 91.2899L124.666 91.327L127.611 96.1615L130.557 100.996H136.518C141.251 100.996 142.458 100.961 142.379 100.827C142.323 100.734 140.775 98.3852 138.937 95.6076C137.099 92.83 135.621 90.531 135.653 90.4988C135.685 90.4667 136.207 90.1991 136.812 89.9043C138.241 89.2087 138.966 88.7032 140.094 87.6165C141.309 86.447 142.731 84.4028 142.731 83.8272C142.731 83.6696 109.943 83.6194 109.787 83.7768Z" fill="white"/>
<path d="M82.2926 111H75V129.571H78.0412V121.679H82.2926C85.3027 121.679 87.6611 119.388 87.6611 116.386C87.6611 113.414 85.3027 111 82.2926 111ZM81.8581 119.048H78.0412V113.755H81.8581C83.4718 113.755 84.6821 114.807 84.6821 116.417C84.6821 118.057 83.4718 119.048 81.8581 119.048Z" fill="white"/>
<path d="M103.561 127.157C102.972 127.157 102.413 126.848 102.413 125.764V117.19H99.465V118.49C98.4099 117.531 97.0445 116.943 95.4619 116.943C91.9552 116.943 89.1623 119.79 89.1623 123.381C89.1623 126.971 91.9552 129.819 95.4619 129.819C97.2617 129.819 98.8444 129.014 99.8995 127.745C100.52 128.983 101.73 129.819 103.251 129.819C103.623 129.819 103.965 129.726 104.244 129.571V127.157H103.561ZM95.8343 127.095C93.7551 127.095 92.1104 125.455 92.1104 123.381C92.1104 121.307 93.7551 119.667 95.8343 119.667C97.8824 119.667 99.5581 121.307 99.5581 123.381C99.5581 125.455 97.8824 127.095 95.8343 127.095Z" fill="white"/>
<path d="M114.835 117.19L111.421 126.352L107.883 117.19H104.749L109.87 129.788L106.921 137H110.025L118 117.19H114.835Z" fill="white"/>
</svg>

<svg xmlns="http://www.w3.org/2000/svg" width="192" height="192" fill="none"><path fill="#98DC9A" fill-rule="evenodd" d="M96 184c48.601 0 88-39.399 88-88S144.601 8 96 8 8 47.399 8 96s39.399 88 88 88Z" clip-rule="evenodd"/><path fill="#fff" fill-rule="evenodd" d="M49.09 68.09c-.05.05-.09 7.474-.09 16.498v16.408h10.474V81.505l.353.043c.344.042.419.26 3.316 9.747L66.106 101l3.75-.036 3.75-.036 2.964-9.702c2.806-9.189 2.98-9.703 3.274-9.703h.31v19.473H90.63V68h-5.28c-3.212 0-5.592.057-6.076.147-1.753.322-3.448 1.536-4.24 3.036-.195.37-1.3 3.987-2.457 8.041a1519.407 1519.407 0 0 1-2.241 7.81c-.111.352-.21.439-.5.439h-.362l-2.212-7.737c-1.216-4.256-2.338-8.014-2.493-8.35-.413-.897-1.53-2.058-2.464-2.558-1.408-.756-2.047-.823-7.877-.826-2.886 0-5.288.039-5.337.088Zm46.06 0c-.05.05-.09 7.474-.09 16.498v16.408h10.474V68h-5.147c-2.832 0-5.188.04-5.237.09Zm14.07.823c.365 3.11 1.683 5.916 3.868 8.232 2.066 2.19 4.517 3.58 7.553 4.28 1.154.267 1.686.282 11.784.333L143 81.81V79.67c0-2.442-.196-3.416-1.025-5.087-1.298-2.62-3.45-4.615-6.14-5.693-1.895-.76-1.701-.75-14.705-.752l-12.001-.003.091.778Zm.567 14.864c-.05.05-.09 3.944-.09 8.654v8.565h10.609v-9.743l2.18.037 2.18.037 2.945 4.835 2.946 4.834h5.961c4.733 0 5.94-.035 5.861-.169a1143.88 1143.88 0 0 0-3.442-5.22c-1.838-2.777-3.316-5.076-3.284-5.108.032-.032.554-.3 1.159-.595 1.429-.695 2.154-1.2 3.282-2.287 1.215-1.17 2.637-3.214 2.637-3.79 0-.157-32.788-.208-32.944-.05Z" clip-rule="evenodd"/><path fill="#fff" d="M82.293 111H75v18.571h3.041v-7.892h4.252c3.01 0 5.368-2.291 5.368-5.293 0-2.972-2.358-5.386-5.368-5.386Zm-.435 8.048h-3.817v-5.293h3.817c1.614 0 2.824 1.052 2.824 2.662 0 1.64-1.21 2.631-2.824 2.631ZM103.561 127.157c-.589 0-1.148-.309-1.148-1.393v-8.574h-2.948v1.3a5.86 5.86 0 0 0-4.003-1.547c-3.507 0-6.3 2.847-6.3 6.438 0 3.59 2.793 6.438 6.3 6.438 1.8 0 3.382-.805 4.438-2.074.62 1.238 1.83 2.074 3.351 2.074.372 0 .714-.093.993-.248v-2.414h-.683Zm-7.727-.062a3.69 3.69 0 0 1-3.724-3.714 3.69 3.69 0 0 1 3.724-3.714 3.71 3.71 0 0 1 3.724 3.714 3.71 3.71 0 0 1-3.724 3.714ZM114.835 117.19l-3.414 9.162-3.538-9.162h-3.134l5.121 12.598-2.949 7.212h3.104L118 117.19h-3.165Z"/></svg>
